!!!COM: Arthur Honegger
!!!OTL: [T603_Hon-w24p3h1m1-7]
**kern	**kern	**kern	**kern	**kern	**dynam	**kern	**kern	**kern	**kern	**kern	**kern	**kern	**kern	**dynam
*part13	*part12	*part11	*part10	*part9	*part9	*part8	*part7	*part6	*part5	*part4	*part3	*part2	*part1	*part1
*staff13	*staff12	*staff11	*staff10	*staff9	*	*staff8	*staff7	*staff6	*staff5	*staff4	*staff3	*staff2	*staff1	*
*I"Contrabass	*I"Violoncello	*I"Viola	*I"Violin II	*I"Violin I	*	*I"Trombone	*I"Trombone	*I"Trumpet in Bb	*I"Trumpet in Bb	*I"Horn in F	*I"Horn in F	*I"Bassoons	*I"Bass Clarinet in Bb	*
*I'Cb.	*I'Vc.	*I'Vla.	*I'Vln. II	*I'Vln. I	*	*I'Tbn.	*I'Tbn.	*I'Tpt.	*I'Tpt.	*I'Hn.	*I'Hn.	*I'Bsn.	*I'B. Cl.	*
!!pagebreak:original
*clefF4	*clefF4	*clefC3	*clefG2	*clefG2	*	*clefF4	*clefF4	*clefG2	*clefG2	*clefG2	*clefG2	*clefF4	*clefF4	*
*ITrd0c0	*	*	*	*	*	*	*	*ITrd1c2	*ITrd1c2	*ITrd4c7	*ITrd4c7	*	*ITrd1c2	*
*k[]	*k[]	*k[]	*k[]	*k[]	*	*k[]	*k[]	*k[b-e-]	*k[b-e-]	*k[b-]	*k[b-]	*k[]	*k[b-e-]	*
*	*	*	*	*	*	*	*	*	*	*	*	*	*	*
*M4/4	*M4/4	*M4/4	*M4/4	*M4/4	*	*M4/4	*M4/4	*M4/4	*M4/4	*M4/4	*M4/4	*M4/4	*M4/4	*
=1	=1	=1	=1	=1	=1	=1	=1	=1	=1	=1	=1	=1	=1	=1
*	*	*	*	*	*	*	*	*	*	*	*	*^	*	*
!	!	!	!	!	!	!	!	!	!	!	!	!	!	!LO:TX:t=[half]=112	!
!LO:TX:b:t=[sempre f]	!	!	!	!	!	!	!	!	!	!	!	!	!	!LO:TX:a:i:t=sempre	!
!LO:TX:a:t=pizz.	!LO:TX:b:t=[sempre f]	!LO:TX:b:t=[sempre f]	!LO:TX:b:t=[sempre f]	!LO:TX:a:i:t=sempre	!	!LO:TX:b:t=[sempre f]	!LO:TX:b:t=[sempre f]	!LO:TX:b:t=[sempre f]	!LO:TX:b:t=[sempre f]	!LO:TX:b:t=[sempre f]	!LO:TX:b:t=[sempre f]	!LO:TX:b:t=[sempre f]	!	!LO:TX:b:t=[sempre f]	!
4C	4CC	4E-X	4Gn	4c	f	1r	4AA-X^ 4C	4B-	1r	1r	4r	4CC	4CC	4r	f
4Bn	4r	4r	4r	4r	.	.	4r	4r	.	.	4F#X^	4r	4BBn	4BBX	.
4D-X	4r	4r	4r	4r	.	.	2r	2r	.	.	4G	4DD-X	4DD-	4r	.
*	*clefC4	*	*	*	*	*	*	*	*	*	*	*	*	*	*
4c	(4c	(4cc	(4cc	(4cc	.	.	.	.	.	.	4A-X	4C	4r	4C	.
*	*	*	*	*	*	*	*	*	*	*	*	*v	*v	*	*
=2	=2	=2	=2	=2	=2	=2	=2	=2	=2	=2	=2	=2	=2	=2
!	!	!	!	!	!	!LO:TX:a:t=mettez les sourdines	!	!LO:TX:a:t=mettez les sourdines	!	!	!	!	!	!
4C	4.b-X)	4.een)	4.aa-X)	4.ddd-X)	.	1r	1r	1r	1r	4F#X^	2r	1r	1r	.
4Bn	.	.	.	.	.	.	.	.	.	4G	.	.	.	.
.	[8g#X	[8dd	[8ff#X	[8ddd-	.	.	.	.	.	.	.	.	.	.
4D-X	4..g#]	4..dd]	4..ff#]	4..ddd-]	.	.	.	.	.	4A-X	4r	.	.	.
4c	.	.	.	.	.	.	.	.	.	4r	4F#X^	.	.	.
.	[16an	[16ee-X	[16gg	[16ddd-	.	.	.	.	.	.	.	.	.	.
=3	=3	=3	=3	=3	=3	=3	=3	=3	=3	=3	=3	=3	=3	=3
*	*	*	*	*	*	*	*	*	*	*	*	*^	*	*
4C	2an]	2ee-X]	2gg]	2ddd-]	.	1r	1r	1r	1r	2r	4G	4CC	4CC	4r	.
4Bn	.	.	.	.	.	.	.	.	.	.	4A-X	4r	4BB	4BBX	.
4D-X	(6b-X	(6een	(6ccc-X	(6ccc	.	.	.	.	.	4F#X	2r	4DD-X	4DD-	4r	.
.	6bn)	6dd)	6bb)	6bb-X)	.	.	.	.	.	.	.	.	.	.	.
4c	.	.	.	.	.	.	.	.	.	4G	.	4C	4r	4C	.
.	(6c	(6cc	(6cc	(6cc	.	.	.	.	.	.	.	.	.	.	.
*	*	*	*	*	*	*	*	*	*	*	*	*v	*v	*	*
!!pagebreak:original
=4	=4	=4	=4	=4	=4	=4	=4	=4	=4	=4	=4	=4	=4	=4
1r	4.a-X)	4.dd)	4.gg)	4.ccc)	.	1r	1r	1r	1r	4A-X	4r	1r	1r	.
.	.	.	.	.	.	.	.	.	.	4r	4F#X	.	.	.
.	[8an	[8dd-X	[8gg-X	[8ccc	.	.	.	.	.	.	.	.	.	.
.	4a]	4dd-]	4gg-]	4ccc]	.	.	.	.	.	2r	4G	.	.	.
.	[4b-X	[4een	[4ff	[4ccc	.	.	.	.	.	.	4A-X	.	.	.
=5	=5	=5	=5	=5	=5	=5	=5	=5	=5	=5	=5	=5	=5	=5
1r	4.b-]	4.een]	4.ff]	4.ccc]	.	1r	1r	1r	1r	4F#X	2r	1r	1r	.
.	.	.	.	.	.	.	.	.	.	4G	.	.	.	.
.	([8bn	([8ddn	([8ggn	([8bb-X	.	.	.	.	.	.	.	.	.	.
.	8bL]	8ddL]	8ggL]	8bb-L]	.	.	.	.	.	4A-X	4r	.	.	.
.	8ccJ)	8ee-XJ)	8ffJ)	8aa-XJ)	.	.	.	.	.	.	.	.	.	.
.	(4c	(4cc	(4cc	(4cc	.	.	.	.	.	4r	4F#X	.	.	.
=6	=6	=6	=6	=6	=6	=6	=6	=6	=6	=6	=6	=6	=6	=6
1r	2.g-X)	2.cc 2.een)	2.een 2.ggn)	2.bb-X)	.	1r	1r	1r	1r	2r	4G	1r	1r	.
.	.	.	.	.	.	.	.	.	.	.	4A-X	.	.	.
.	.	.	.	.	.	.	.	.	.	4F#X	2r	.	.	.
.	[4a-X	[4bn	[4dd [4ff#X	[4bb-X	.	.	.	.	.	4G	.	.	.	.
=7	=7	=7	=7	=7	=7	=7	=7	=7	=7	=7	=7	=7	=7	=7
1r	4a-]	4b]	4dd] 4ff#]	4bb-]	.	1r	1r	1r	1r	4A-X	4r	1r	1r	.
.	2an	2cc	2ee-X 2gg-X	2cc 2aa-X	.	.	.	.	.	4r	4F#X	.	.	.
.	.	.	.	.	.	.	.	.	.	2r	4G	.	.	.
.	[4b-X	[4bn	[4dd-X [4ffn	[4dd-X [4gg	.	.	.	.	.	.	4A-X	.	.	.
=	=	=	=	=	=	=	=	=	=	=	=	=	=	=
*-	*-	*-	*-	*-	*-	*-	*-	*-	*-	*-	*-	*-	*-	*-
!!!system-decoration: [(s1,s2)][(s3,s4)][(s5,s6)][(s7,s8)][(s9,s10,s11,s12,s13)]
